icons/moon.svg

<svg xmlns="http://www.w3.org/2000/svg" viewBox="0 0 24 24" fill="currentColor">
  <path d="M6.13833 6.12235C7.59711 4.6679 9.70273 3.75 12 3.75c.5243 0 1.066.08805 1.5529.18543.4062.08124.8013-.18218.8825-.58835.0813-.40617-.1821-.80128-.5883-.88252C13.334 2.36194 12.6757 2.25 12 2.25c-2.69853 0-5.1894 1.07875-6.93032 2.81968l-.00804.00803-.00778.00827C3.33718 6.90996 2.25 9.28911 2.25 12c0 5.4142 4.33579 9.75 9.75 9.75 2.6985 0 5.1894-1.0787 6.9303-2.8197l.0081-.008.0078-.0083C20.6628 17.0901 21.75 14.7109 21.75 12c0-1.6337-.4354-3.14787-1.0792-4.4354-.1852-.37048-.6357-.52065-1.0062-.33541-.3705.18524-.5207.63575-.3354 1.00623.5562 1.11247.9208 2.39828.9208 3.76458 0 2.2851-.9096 4.3029-2.3883 5.8777C16.4029 19.3321 14.2973 20.25 12 20.25c-4.58579 0-8.25-3.6642-8.25-8.25 0-2.28508.90963-4.30283 2.38833-5.87765Z"/>
  <path d="M14.4296 3.02653c.0959.40295-.1529.80738-.5559.90332-1.7542.41766-3.1237 2.10942-3.1237 4.0704 0 2.38575 1.8642 4.24995 4.25 4.24995 2.3858 0 4.25-1.8642 4.25-4.24995v-.09999c0-.41422.3358-.75.75-.75s.75.33578.75.75v.09999c0 3.21425-2.5358 5.74995-5.75 5.74995s-5.75-2.5357-5.75-5.74995c0-2.63902 1.8304-4.94727 4.2763-5.52961.4029-.09594.8074.15294.9033.55589Z"/>
</svg>

<svg width="24" height="24" viewBox="0 0 24 24" fill="none" xmlns="http://www.w3.org/2000/svg">
<path fill-rule="evenodd" clip-rule="evenodd" d="M6.13833 6.12235C7.59711 4.6679 9.70273 3.75 12 3.75C12.5243 3.75 13.066 3.83805 13.5529 3.93543C13.9591 4.01667 14.3542 3.75325 14.4354 3.34708C14.5167 2.94091 14.2533 2.5458 13.8471 2.46456C13.334 2.36194 12.6757 2.25 12 2.25C9.30147 2.25 6.8106 3.32875 5.06968 5.06968L5.06164 5.07771L5.05386 5.08598C3.33718 6.90996 2.25 9.28911 2.25 12C2.25 17.4142 6.58579 21.75 12 21.75C14.6985 21.75 17.1894 20.6713 18.9303 18.9303L18.9384 18.9223L18.9462 18.914C20.6628 17.0901 21.75 14.7109 21.75 12C21.75 10.3663 21.3146 8.85213 20.6708 7.5646C20.4856 7.19412 20.0351 7.04395 19.6646 7.22919C19.2941 7.41443 19.1439 7.86494 19.3292 8.23542C19.8854 9.34789 20.25 10.6337 20.25 12C20.25 14.2851 19.3404 16.3029 17.8617 17.8777C16.4029 19.3321 14.2973 20.25 12 20.25C7.41421 20.25 3.75 16.5858 3.75 12C3.75 9.71492 4.65963 7.69717 6.13833 6.12235Z" fill="black"/>
<path fill-rule="evenodd" clip-rule="evenodd" d="M14.4296 3.02653C14.5255 3.42948 14.2767 3.83391 13.8737 3.92985C12.1195 4.34751 10.75 6.03927 10.75 8.00025C10.75 10.386 12.6142 12.2502 15 12.2502C17.3858 12.2502 19.25 10.386 19.25 8.00025V7.90026C19.25 7.48604 19.5858 7.15026 20 7.15026C20.4142 7.15026 20.75 7.48604 20.75 7.90026V8.00025C20.75 11.2145 18.2142 13.7502 15 13.7502C11.7858 13.7502 9.25 11.2145 9.25 8.00025C9.25 5.36123 11.0804 3.05298 13.5263 2.47064C13.9292 2.3747 14.3337 2.62358 14.4296 3.02653Z" fill="black"/>
</svg>
